static/img/pages/customers/logos/central_group.svg

<svg width="121" height="10" viewBox="0 0 121 10" fill="none" xmlns="http://www.w3.org/2000/svg">
<path d="M9.19829 8.03742L9.25149 7.95342L7.83799 6.93582L7.77779 7.02972C7.53539 7.41552 7.19339 7.72882 6.78779 7.93632C6.35079 8.15022 5.86899 8.25692 5.38249 8.24752C4.98279 8.25222 4.58679 8.17072 4.22139 8.00872C3.87569 7.85272 3.56609 7.62662 3.31229 7.34482C3.04849 7.04642 2.84489 6.69982 2.71299 6.32402C2.42369 5.47802 2.42369 4.55972 2.71299 3.71372C2.84669 3.33512 3.05269 2.98602 3.31939 2.68582C3.57619 2.40082 3.88789 2.17072 4.23589 2.00922C4.59579 1.84422 4.98769 1.76062 5.38359 1.76432C5.85779 1.75602 6.32699 1.86282 6.75099 2.07552C7.15139 2.28602 7.48879 2.59902 7.72889 2.98252L7.78879 3.07642L7.87909 3.01152L9.10869 2.12972L9.19159 2.07022L9.13489 1.98512C8.74419 1.39012 8.20719 0.905418 7.57539 0.577718C6.94579 0.274518 6.25909 0.108118 5.56049 0.0894184C4.86199 0.0707184 4.16739 0.200218 3.52249 0.469218C2.95569 0.714718 2.44239 1.06842 2.01119 1.51052C1.57649 1.96302 1.23369 2.49552 1.00179 3.07852C0.753693 3.69732 0.628194 4.35842 0.632094 5.02512C0.625494 5.69622 0.745693 6.36252 0.986493 6.98902C1.20959 7.56712 1.54419 8.09582 1.97109 8.54492C2.39569 8.98442 2.90679 9.33102 3.47209 9.56282C4.07429 9.80802 4.71919 9.93122 5.36939 9.92512C6.14729 9.93682 6.91749 9.76952 7.62039 9.43592C8.26699 9.12682 8.81379 8.64222 9.19829 8.03742Z" fill="white"/>
<path d="M17.3873 9.70197V8.16097H13.7101V5.66467H17.0013V4.12467H13.7101V1.85207H17.2622V0.311768H12.0088V9.70197H17.3873Z" fill="white"/>
<path d="M33.1956 1.85207V9.70197H34.9964V1.85207H37.442V0.311768H30.75V1.85177L33.1956 1.85207Z" fill="white"/>
<path d="M44.9523 9.70204H46.8605L44.9292 6.12224C45.5224 5.92144 46.0366 5.53734 46.3974 5.02544C46.7583 4.51354 46.9472 3.90024 46.9371 3.27404C46.9371 1.50194 45.6257 0.312744 43.6763 0.312744H39.9902V9.70204H41.6915V6.32784H43.1684L44.9523 9.70204ZM45.1954 3.31054C45.1954 4.01654 44.7733 4.77084 43.5881 4.77084H41.6915V1.85244H43.5884C44.7729 1.85244 45.1954 2.60564 45.1954 3.31094V3.31054Z" fill="white"/>
<path d="M56.3501 9.70197H58.2438L54.4574 0.311768H52.7998L49.001 9.70197H50.8578L51.6528 7.59067H55.5555L56.3501 9.70197ZM54.9678 6.05137H52.2426L53.605 2.43267L54.9678 6.05137Z" fill="white"/>
<path d="M62.4526 8.16066V0.310059H60.6514V9.70246H66.7583V8.16066H62.4526Z" fill="white"/>
<path d="M26.4655 0.311768V6.76807L21.8813 0.311768H20.2188V9.70197H21.9576V3.24497L26.5414 9.70197H28.2043V0.311768H26.4655Z" fill="white"/>
<path d="M108.06 0.311768V5.69697C108.103 6.37377 107.907 7.04417 107.507 7.59177C107.308 7.79907 107.069 7.96407 106.805 8.07707C106.541 8.19007 106.257 8.24857 105.969 8.24917C105.682 8.24987 105.397 8.19257 105.133 8.08077C104.868 7.96887 104.628 7.80487 104.428 7.59847C104.034 7.04607 103.843 6.37427 103.887 5.69697V0.311768H102.086V5.78277C102.079 6.36417 102.169 6.94277 102.353 7.49427C102.517 7.98027 102.781 8.42687 103.127 8.80567C103.469 9.17207 103.89 9.45697 104.358 9.63927C104.871 9.83627 105.417 9.93367 105.967 9.92637C106.514 9.93297 107.057 9.83327 107.566 9.63287C108.034 9.44577 108.455 9.15957 108.801 8.79397C109.151 8.41587 109.419 7.96937 109.588 7.48257C109.776 6.93537 109.868 6.35987 109.861 5.78127V0.311768H108.06Z" fill="#AAAAAA"/>
<path d="M97.956 1.52901C97.507 1.08241 96.978 0.724911 96.396 0.475611C95.792 0.216711 95.142 0.0848106 94.485 0.0882106C93.822 0.0845106 93.166 0.216311 92.556 0.475611C91.968 0.726211 91.432 1.08551 90.977 1.53461C90.523 1.98541 90.161 2.51971 89.9108 3.10801C89.6551 3.71371 89.5234 4.36441 89.5234 5.02191C89.5234 5.67931 89.6551 6.33011 89.9108 6.93581C90.16 7.51761 90.517 8.04671 90.964 8.49531C91.412 8.94131 91.941 9.29681 92.523 9.54231C93.132 9.79501 93.785 9.92451 94.444 9.92341C95.103 9.92231 95.755 9.79061 96.363 9.53591C96.95 9.28621 97.486 8.92941 97.942 8.48361C98.396 8.03571 98.759 7.50311 99.008 6.91601C99.264 6.31031 99.396 5.65951 99.396 5.00201C99.396 4.34461 99.264 3.69381 99.008 3.08811C98.759 2.50651 98.402 1.97741 97.956 1.52901ZM97.534 5.01271C97.537 5.44351 97.455 5.87081 97.293 6.27021C97.138 6.65051 96.913 6.99901 96.631 7.29801C96.354 7.59201 96.021 7.82861 95.652 7.99451C95.277 8.16031 94.871 8.24601 94.46 8.24601C94.05 8.24601 93.644 8.16031 93.268 7.99451C92.899 7.82861 92.567 7.59201 92.289 7.29801C92.007 6.99911 91.783 6.65061 91.627 6.27021C91.465 5.87091 91.383 5.44361 91.387 5.01271C91.385 4.58171 91.467 4.15441 91.627 3.75441C91.93 2.98641 92.518 2.36551 93.269 2.02231C93.643 1.85271 94.05 1.76501 94.46 1.76501C94.871 1.76501 95.278 1.85271 95.652 2.02231C96.403 2.36551 96.991 2.98641 97.294 3.75441C97.454 4.15451 97.535 4.58171 97.534 5.01271Z" fill="#AAAAAA"/>
<path d="M73.694 4.48464V6.02463H76.1112C76.0634 6.32063 75.9704 6.60744 75.8355 6.87524C75.6954 7.15194 75.5056 7.40053 75.2755 7.60853C75.0437 7.81403 74.775 7.97364 74.4837 8.07884C74.1648 8.19294 73.8282 8.24953 73.4895 8.24613C73.0709 8.25023 72.656 8.16654 72.2717 8.00054C71.9076 7.84184 71.5793 7.61133 71.3062 7.32283C71.028 7.02463 70.8098 6.67564 70.6633 6.29504C70.3501 5.45914 70.3501 4.53824 70.6633 3.70234C70.8098 3.32174 71.0281 2.97284 71.3062 2.67454C71.5784 2.38714 71.9068 2.15874 72.271 2.00364C72.6567 1.84134 73.0715 1.75964 73.4899 1.76364C73.9747 1.75954 74.4529 1.87694 74.8807 2.10534C75.32 2.34804 75.6949 2.69234 75.9741 3.10944L76.035 3.19764L76.1222 3.13494L77.3517 2.25314L77.4326 2.19493L77.3794 2.11064C76.9829 1.47684 76.4245 0.960235 75.7618 0.614235C75.0629 0.256335 74.287 0.0751354 73.5019 0.0864354C72.8326 0.0809354 72.1688 0.208135 71.549 0.460735C70.9637 0.700735 70.4324 1.05544 69.9863 1.50384C69.5292 1.96824 69.1683 2.51824 68.9243 3.12254C68.6804 3.72674 68.5581 4.37314 68.5647 5.02474C68.5588 5.69234 68.6862 6.35434 68.9393 6.97204C69.1784 7.55194 69.5303 8.07863 69.9746 8.52153C70.4233 8.96243 70.9536 9.31154 71.5359 9.54944C72.1559 9.80194 72.8197 9.92914 73.4892 9.92374C74.1283 9.93174 74.7627 9.81283 75.3556 9.57383C75.9008 9.34973 76.3914 9.01114 76.7942 8.58074C77.2032 8.13374 77.5167 7.60804 77.7157 7.03584C77.9377 6.39344 78.0469 5.71744 78.0386 5.03784V4.48464H73.694Z" fill="#AAAAAA"/>
<path d="M116.813 0.311768H113.127V9.70197H114.828V6.32787H116.813C117.255 6.34827 117.697 6.28037 118.113 6.12827C118.528 5.97617 118.91 5.74277 119.234 5.44177C119.511 5.15407 119.727 4.81447 119.871 4.44257C120.016 4.07067 120.085 3.67387 120.075 3.27517C120.074 1.50187 118.765 0.311768 116.813 0.311768ZM114.828 1.85137H116.725C117.91 1.85137 118.333 2.60487 118.333 3.30947C118.333 4.01407 117.91 4.76977 116.725 4.76977H114.828V1.85137Z" fill="#AAAAAA"/>
<path d="M87.5269 3.27282C87.5269 1.50062 86.2155 0.311523 84.2661 0.311523H80.5801V9.70222H82.2813V6.32802H83.7593L85.5435 9.70222H87.4518L85.5205 6.12242C86.1137 5.92132 86.6277 5.53692 86.9883 5.02472C87.3489 4.51262 87.5375 3.89912 87.5269 3.27282ZM82.2813 1.85122H84.1783C85.3635 1.85122 85.7856 2.60432 85.7856 3.30972C85.7856 4.01502 85.3635 4.76992 84.1783 4.76992H82.2813V1.85122Z" fill="#AAAAAA"/>
</svg>

<svg width="121" height="10" viewBox="0 0 121 10" fill="none" xmlns="http://www.w3.org/2000/svg"><path d="M9.198 8.037l.053-.084-1.413-1.017-.06.094a2.53 2.53 0 01-.99.906c-.437.214-.919.32-1.406.312-.4.004-.795-.077-1.16-.24a2.74 2.74 0 01-.91-.663 3.083 3.083 0 01-.599-1.021 4.034 4.034 0 010-2.61c.134-.379.34-.728.606-1.028a2.86 2.86 0 01.917-.677c.36-.165.752-.248 1.148-.245.474-.008.943.099 1.367.312.4.21.738.523.978.907l.06.093.09-.064 1.23-.882.083-.06-.057-.085A4.154 4.154 0 007.575.578 4.949 4.949 0 003.522.469c-.566.246-1.08.6-1.51 1.042a4.852 4.852 0 00-1.01 1.568 5.15 5.15 0 00-.37 1.946A5.328 5.328 0 00.986 6.99a4.73 4.73 0 00.985 1.556c.425.44.936.786 1.501 1.018a4.909 4.909 0 001.897.362 5.072 5.072 0 002.251-.49 3.824 3.824 0 001.578-1.398zm8.189 1.665V8.161H13.71V5.665h3.291v-1.54h-3.29V1.852h3.551V.312H12.01v9.39h5.378zm15.809-7.85v7.85h1.8v-7.85h2.446V.312H30.75v1.54h2.446zm11.756 7.85h1.909l-1.932-3.58a2.956 2.956 0 002.008-2.848c0-1.772-1.311-2.961-3.26-2.961H39.99v9.389h1.701V6.328h1.477l1.784 3.374zm.243-6.391c0 .706-.422 1.46-1.607 1.46h-1.897V1.852h1.897c1.185 0 1.607.754 1.607 1.459zM56.35 9.702h1.894L54.457.312H52.8L49 9.702h1.857l.795-2.111h3.903l.794 2.111zm-1.382-3.65h-2.725l1.362-3.62 1.363 3.62zm7.485 2.108V.31H60.65v9.392h6.107V8.161h-4.305zM26.465.312v6.456L21.881.312H20.22v9.39h1.739V3.245l4.583 6.457h1.663V.312h-1.739z" fill="#fff"/><path d="M108.06.312v5.385a2.9 2.9 0 01-.553 1.895 2.141 2.141 0 01-3.079.006 2.946 2.946 0 01-.541-1.901V.312h-1.801v5.47a5.21 5.21 0 00.267 1.712c.164.486.428.933.774 1.312.342.366.763.651 1.231.833a4.328 4.328 0 001.609.287 4.225 4.225 0 001.599-.293 3.477 3.477 0 001.235-.839c.35-.378.618-.825.787-1.311.188-.548.28-1.123.273-1.702V.311h-1.801zM97.956 1.529a5.008 5.008 0 00-1.56-1.053 4.786 4.786 0 00-1.911-.388 4.86 4.86 0 00-1.929.388c-.588.25-1.124.61-1.579 1.059-.454.45-.816.985-1.066 1.573a4.92 4.92 0 000 3.828c.249.582.606 1.11 1.053 1.56a4.92 4.92 0 001.559 1.046 4.99 4.99 0 003.84-.006 5.133 5.133 0 001.579-1.052 4.88 4.88 0 001.454-3.482 4.92 4.92 0 00-.388-1.914 5.003 5.003 0 00-1.052-1.559zm-.422 3.484a3.285 3.285 0 01-.903 2.285 3.08 3.08 0 01-.979.697 2.948 2.948 0 01-2.384 0 3.092 3.092 0 01-.979-.697 3.265 3.265 0 01-.902-2.285 3.35 3.35 0 01.24-1.259 3.191 3.191 0 011.642-1.732 2.887 2.887 0 012.383 0 3.191 3.191 0 011.642 1.732c.16.4.241.828.24 1.259zm-23.84-.528v1.54h2.417a2.9 2.9 0 01-.276.85c-.14.277-.33.526-.56.734-.231.205-.5.365-.791.47-.32.114-.656.17-.994.167a2.956 2.956 0 01-2.183-.923 3.183 3.183 0 01-.644-1.028 3.695 3.695 0 010-2.593c.147-.38.365-.73.643-1.027.272-.288.6-.516.965-.671.386-.163.8-.244 1.219-.24a2.9 2.9 0 011.39.341c.44.243.815.587 1.094 1.004l.061.089.087-.063 1.23-.882.08-.058-.053-.084A4.202 4.202 0 0075.762.614a4.806 4.806 0 00-2.26-.528 5.064 5.064 0 00-1.953.375 4.742 4.742 0 00-1.563 1.043 4.949 4.949 0 00-1.421 3.52c-.006.668.121 1.33.374 1.948.24.58.591 1.107 1.036 1.55.448.44.979.79 1.56 1.027a5.07 5.07 0 001.954.375 4.83 4.83 0 001.867-.35 4.11 4.11 0 001.438-.993c.41-.447.723-.973.922-1.545a5.897 5.897 0 00.323-1.998v-.553h-4.345zM116.813.312h-3.686v9.39h1.701V6.328h1.985a3.338 3.338 0 002.421-.886c.277-.288.493-.628.637-1a3 3 0 00.204-1.167c-.001-1.773-1.31-2.963-3.262-2.963zm-1.985 1.54h1.897c1.185 0 1.608.753 1.608 1.457 0 .705-.423 1.46-1.608 1.46h-1.897V1.852zM87.527 3.273c0-1.772-1.311-2.961-3.26-2.961H80.58v9.39h1.701V6.328h1.478l1.784 3.374h1.909l-1.931-3.58a2.956 2.956 0 002.006-2.85zM82.28 1.85h1.897c1.186 0 1.608.753 1.608 1.459 0 .705-.422 1.46-1.608 1.46H82.28V1.85z" fill="#AAA"/></svg>
